public/assets/ambita.svg

<?xml version="1.0" encoding="UTF-8" standalone="no"?>
<svg width="100%" height="100%" preserveAspectRatio="xMidYMid meet" viewBox="0 0 156 41" version="1.1" xmlns="http://www.w3.org/2000/svg" xmlns:xlink="http://www.w3.org/1999/xlink">
    <!-- Generator: Sketch 40.3 (33839) - http://www.bohemiancoding.com/sketch -->
    <title>logo_white_footer</title>
    <desc>Created with Sketch.</desc>
    <defs/>
    <g id="V1" stroke="none" stroke-width="1" fill="none" fill-rule="evenodd">
        <g id="Animasjonsguide" transform="translate(-355.000000, -4657.000000)" fill="#000000">
            <g id="logo_white_footer" transform="translate(355.000000, 4657.000000)">
                <path d="M17.3313672,32.5964349 C16.074623,33.8970359 14.2938423,34.6251224 12.4613991,34.6251224 C10.5768443,34.6251224 8.79628819,33.8970359 7.59232947,32.5964349 C6.33558524,31.2431582 5.60242828,29.3704893 5.60242828,27.2377894 C5.60242828,27.2199332 5.60310214,27.2023002 5.60310214,27.1848904 C5.61455772,25.0220582 6.34546848,23.1688079 7.59232947,21.8778047 C8.79628819,20.4731914 10.5768443,19.7448816 12.4613991,19.7448816 C14.2938423,19.7448816 16.074623,20.4731914 17.3313672,21.8778047 C18.4868082,23.0741701 19.2433256,24.7544385 19.3576567,26.7168348 L19.3576567,27.7466911 C19.2433256,29.6682414 18.4868082,31.352081 17.3313672,32.5964349 Z M21.578691,14.1770954 C20.3569874,14.1770954 19.3576567,15.1705697 19.3576567,16.3850145 C17.3823558,15.0422283 15.050135,14.1770954 12.4613991,14.1770954 C8.90118534,14.1770954 5.81222258,15.6866139 3.56019083,18.079791 C1.31961465,20.4098019 0.0130049654,23.6154361 0.000426292148,27.1848904 C-2.29461833e-05,30.7748794 1.30883293,34.0010482 3.56019083,36.3940022 C5.81222258,38.736066 8.90118534,40.1929086 12.4613991,40.1929086 C15.050135,40.1929086 17.3825804,39.3784427 19.3583306,38.0023994 C19.3673154,39.2083624 20.3628275,40.1929086 21.578691,40.1929086 L22.7024607,40.1929086 C23.9234905,40.1929086 24.9232704,39.1987647 24.9232704,37.9856592 L24.9232704,16.3850145 C24.9232704,15.1705697 23.9234905,14.1770954 22.7024607,14.1770954 L21.578691,14.1770954 Z" id="Fill-1"/>
                <path d="M63.2990056,14.1770954 L33.7258709,14.1770954 C32.5041673,14.1770954 31.5043874,15.1705697 31.5043874,16.3850145 L31.5043874,37.9856592 C31.5043874,39.1987647 32.5041673,40.1929086 33.7258709,40.1929086 L34.8487421,40.1929086 C36.0706704,40.1929086 37.0704503,39.1987647 37.0704503,37.9856592 L37.0704503,19.7080532 L45.7295191,19.7080532 L45.7295191,37.9856592 C45.7295191,39.1987647 46.729299,40.1929086 47.9512273,40.1929086 L49.0740985,40.1929086 C50.2960267,40.1929086 51.2953574,39.1987647 51.2953574,37.9856592 L51.2953574,19.7080532 L59.9546509,19.7080532 L59.9546509,37.9856592 C59.9546509,39.1987647 60.9546554,40.1929086 62.1756852,40.1929086 L63.2990056,40.1929086 C64.5211585,40.1929086 65.5202645,39.1987647 65.5202645,37.9856592 L65.5202645,16.3850145 C65.5202645,15.1705697 64.5211585,14.1770954 63.2990056,14.1770954" id="Fill-2"/>
                <path d="M150.344772,27.7480303 C150.229992,29.6693574 149.473699,31.352081 148.318258,32.5964349 C147.061514,33.8970359 145.281407,34.6251224 143.448515,34.6251224 C141.563735,34.6251224 139.783628,33.8970359 138.578996,32.5964349 C137.322476,31.2431582 136.589993,29.3704893 136.589993,27.2377894 C136.589993,27.2199332 136.589993,27.2023002 136.590667,27.1848904 C136.601898,25.0220582 137.332809,23.1688079 138.578996,21.8778047 C139.783628,20.4731914 141.563735,19.7448816 143.448515,19.7448816 C145.281407,19.7448816 147.061514,20.4731914 148.318258,21.8778047 C149.473699,23.0735005 150.229992,24.753992 150.344772,26.7150492 L150.344772,27.7480303 L150.344772,27.7480303 Z M153.689352,14.1770954 L152.566031,14.1770954 C151.343878,14.1770954 150.344772,15.1705697 150.344772,16.3850145 L150.344772,16.4196109 C148.369471,15.0422283 146.037026,14.1770954 143.448515,14.1770954 C139.888301,14.1770954 136.799563,15.6866139 134.547756,18.079791 C132.306955,20.4098019 131.000794,23.6154361 130.987991,27.1848904 C130.987991,27.2023002 130.987317,27.2199332 130.987317,27.2377894 C130.987317,30.7748794 132.296173,34.0010482 134.547756,36.3940022 C136.799563,38.736066 139.888301,40.1929086 143.448515,40.1929086 C146.037251,40.1929086 148.369471,39.3784427 150.344772,38.0023994 C150.353982,39.2083624 151.349943,40.1929086 152.566031,40.1929086 L153.689352,40.1929086 C154.910606,40.1929086 155.910386,39.1987647 155.910386,37.9856592 L155.910386,16.3850145 C155.910386,15.1705697 154.910606,14.1770954 153.689352,14.1770954 L153.689352,14.1770954 Z" id="Fill-3"/>
                <path d="M105.6651,14.1770954 L104.542004,14.1770954 C103.320301,14.1770954 102.320296,15.1705697 102.320296,16.3850145 L102.320296,37.9856592 C102.320296,39.1987647 103.320301,40.1929086 104.542004,40.1929086 L105.6651,40.1929086 C106.886579,40.1929086 107.886359,39.1987647 107.886359,37.9856592 L107.886359,16.3850145 C107.886359,15.1705697 106.886579,14.1770954 105.6651,14.1770954" id="Fill-4"/>
                <path d="M89.6068515,32.388187 C88.2979956,33.7405709 86.5700004,34.5215564 84.6849964,34.5215564 C82.7481053,34.5215564 81.0722217,33.7405709 79.7631412,32.388187 C78.4542853,31.0875861 77.6690167,29.2142475 77.6690167,27.2377894 C77.6690167,27.2199332 77.669466,27.2023002 77.669466,27.1848904 C77.6827185,25.1245082 78.465067,23.2717043 79.7631412,21.9820403 C81.0722217,20.6294331 82.7481053,19.8484476 84.6849964,19.8484476 C86.5700004,19.8484476 88.2979956,20.6294331 89.6068515,21.9820403 C90.9051503,23.2717043 91.6874988,25.1245082 91.700976,27.1848904 C91.700976,27.2023002 91.7014252,27.2199332 91.7014252,27.2377894 C91.7014252,29.2142475 90.9163812,31.0875861 89.6068515,32.388187 L89.6068515,32.388187 Z M84.6849964,14.1770954 C82.1193963,14.1770954 79.6065816,15.0098639 77.6690167,16.3626942 L77.6672198,5.97864455 C77.6672198,4.76531579 76.6681137,3.77161828 75.4464101,3.77161828 L74.322865,3.77161828 C73.1009368,3.77161828 72.1016061,4.76531579 72.1016061,5.97864455 L72.1016061,37.9856592 C72.1016061,39.1987647 73.1009368,40.1929086 74.322865,40.1929086 L75.4464101,40.1929086 C76.6553104,40.1929086 77.645881,39.2197458 77.6665459,38.02405 C79.6398253,39.3378199 82.1117592,40.1929086 84.6849964,40.1929086 C91.7537615,40.1929086 97.4087736,34.2610791 97.4087736,27.2377894 C97.380247,20.0799086 91.7364658,14.1770954 84.6849964,14.1770954 Z" id="Fill-5"/>
                <path d="M127.087929,14.1770954 L123.664508,14.1770954 L123.664508,5.97864455 C123.664508,4.76531579 122.664953,3.77161828 121.443249,3.77161828 L120.319928,3.77161828 C119.098674,3.77161828 118.09867,4.76531579 118.09867,5.97864455 L118.09867,14.1770954 L114.675249,14.1770954 C113.453545,14.1770954 112.454215,15.1705697 112.454215,16.3850145 L112.454215,17.5008038 C112.454215,18.7148021 113.453545,19.7080532 114.675249,19.7080532 L118.09867,19.7080532 L118.09867,37.9856592 C118.09867,39.1987647 119.098674,40.1929086 120.319928,40.1929086 L121.443249,40.1929086 C122.664953,40.1929086 123.664508,39.1987647 123.664508,37.9856592 L123.664508,19.7080532 L127.087929,19.7080532 C128.309857,19.7080532 129.309187,18.7148021 129.309187,17.5008038 L129.309187,16.3850145 C129.309187,15.1705697 128.309857,14.1770954 127.087929,14.1770954" id="Fill-6"/>
                <path d="M108.220817,3.16854543 C108.220817,4.87939255 106.825258,6.26637286 105.103552,6.26637286 C103.381622,6.26637286 101.986288,4.87939255 101.986288,3.16854543 C101.986288,1.4574751 103.381622,0.0711643995 105.103552,0.0711643995 C106.825258,0.0711643995 108.220817,1.4574751 108.220817,3.16854543" id="Fill-7"/>
            </g>
        </g>
    </g>
<script xmlns=""/></svg>

<svg viewBox="0 0 156 41" xmlns="http://www.w3.org/2000/svg"><g id="V1" stroke="none" stroke-width="1" fill="none" fill-rule="evenodd"><g id="Animasjonsguide" transform="translate(-355 -4657)" fill="#000"><g id="logo_white_footer" transform="translate(355 4657)"><path d="M17.331 32.596c-1.256 1.301-3.037 2.03-4.87 2.03-1.884 0-3.665-.729-4.869-2.03-1.256-1.353-1.99-3.226-1.99-5.358l.001-.053c.012-2.163.742-4.016 1.99-5.307 1.203-1.405 2.984-2.133 4.868-2.133 1.833 0 3.614.728 4.87 2.133 1.156 1.196 1.912 2.876 2.027 4.839v1.03c-.115 1.921-.871 3.605-2.027 4.85zm4.248-18.419a2.22 2.22 0 0 0-2.221 2.208c-1.976-1.343-4.308-2.208-6.897-2.208-3.56 0-6.649 1.51-8.9 3.903C1.32 20.41.012 23.615 0 27.185 0 30.775 1.308 34 3.56 36.394c2.251 2.342 5.34 3.799 8.9 3.799 2.59 0 4.922-.815 6.897-2.19a2.22 2.22 0 0 0 2.22 2.19h1.124c1.221 0 2.221-.994 2.221-2.207V16.385c0-1.214-1-2.208-2.22-2.208h-1.124z" id="Fill-1"/><path d="M63.299 14.177H33.726a2.221 2.221 0 0 0-2.222 2.208v21.6c0 1.214 1 2.208 2.222 2.208h1.123a2.222 2.222 0 0 0 2.221-2.207V19.708h8.66v18.278c0 1.213 1 2.207 2.221 2.207h1.123a2.221 2.221 0 0 0 2.221-2.207V19.708h8.66v18.278c0 1.213 1 2.207 2.22 2.207H63.3a2.221 2.221 0 0 0 2.221-2.207V16.385c0-1.214-.999-2.208-2.221-2.208" id="Fill-2"/><path d="M150.345 27.748c-.115 1.921-.871 3.604-2.027 4.848-1.256 1.301-3.037 2.03-4.87 2.03-1.884 0-3.664-.729-4.869-2.03-1.257-1.353-1.989-3.226-1.989-5.358v-.053c.012-2.163.743-4.016 1.989-5.307 1.205-1.405 2.985-2.133 4.87-2.133 1.832 0 3.613.728 4.87 2.133 1.155 1.196 1.911 2.876 2.026 4.837v1.033zm3.344-13.57h-1.123a2.22 2.22 0 0 0-2.221 2.207v.035c-1.976-1.378-4.308-2.243-6.896-2.243-3.56 0-6.65 1.51-8.901 3.903-2.241 2.33-3.547 5.535-3.56 9.105v.053c0 3.537 1.308 6.763 3.56 9.156 2.252 2.342 5.34 3.799 8.9 3.799 2.59 0 4.921-.815 6.897-2.19a2.221 2.221 0 0 0 2.221 2.19h1.123a2.221 2.221 0 0 0 2.221-2.207V16.385c0-1.214-1-2.208-2.22-2.208z" id="Fill-3"/><path d="M105.665 14.177h-1.123a2.221 2.221 0 0 0-2.222 2.208v21.6c0 1.214 1 2.208 2.222 2.208h1.123a2.222 2.222 0 0 0 2.221-2.207V16.385c0-1.214-1-2.208-2.22-2.208" id="Fill-4"/><path d="M89.607 32.388c-1.309 1.353-3.037 2.134-4.922 2.134-1.937 0-3.613-.781-4.922-2.134-1.309-1.3-2.094-3.174-2.094-5.15v-.053c.014-2.06.796-3.913 2.094-5.203 1.31-1.353 2.985-2.134 4.922-2.134 1.885 0 3.613.781 4.922 2.134 1.298 1.29 2.08 3.143 2.094 5.203v.053c0 1.976-.785 3.85-2.094 5.15zm-4.922-18.21c-2.566 0-5.078.832-7.016 2.185l-.002-10.384c0-1.214-.999-2.207-2.22-2.207h-1.124a2.22 2.22 0 0 0-2.221 2.207v32.007c0 1.213.999 2.207 2.22 2.207h1.124a2.22 2.22 0 0 0 2.22-2.169c1.974 1.314 4.446 2.169 7.019 2.169 7.069 0 12.724-5.932 12.724-12.955-.029-7.158-5.673-13.06-12.724-13.06z" id="Fill-5"/><path d="M127.088 14.177h-3.423V5.98c0-1.214-1-2.207-2.222-2.207h-1.123a2.221 2.221 0 0 0-2.221 2.207v8.198h-3.424a2.22 2.22 0 0 0-2.22 2.208v1.116c0 1.214.999 2.207 2.22 2.207h3.424v18.278c0 1.213 1 2.207 2.22 2.207h1.124a2.221 2.221 0 0 0 2.222-2.207V19.708h3.423a2.22 2.22 0 0 0 2.221-2.207v-1.116c0-1.214-1-2.208-2.221-2.208" id="Fill-6"/><path d="M108.22 3.169a3.108 3.108 0 0 1-3.116 3.097 3.107 3.107 0 0 1-3.118-3.097A3.107 3.107 0 0 1 105.104.07a3.107 3.107 0 0 1 3.117 3.098" id="Fill-7"/></g></g></g><script/></svg>
